X: 20745
T: Johnny Gorman's
R: barndance
M: 4/4
K: Gmajor
D2 G2 G2 (3BAG|F>GA>B (3cdc (3cBA|B2 G>B (3ABA F>G|(3ABA ^G>A F>AE>A|
(3DED G>F G>BA>G|F2 (3GAB c2 (3cBA|(3BcB G>B (3ABA (3FGA|G2 B2 G2:|
d2 B>d g>d (3Bcd|c2 (3Bcd e2 d>c|B>GG>B A>F (3FFG|(3ABA ^G>A F>Ad>^c|
(3ded (3Bcd g>d B2|c>Bc>d (3efe d>c|B2 G>B A2 F>A|G2 (3GGG G2:|

